!!!COM: Palestrina, Giovanni Perluigi da
!!!OPR: Missa Dilexi quoniam
!!!OTL: Agnus I
**kern	**kern	**kern	**kern	**kern
*Ibass	*Itenor	*Itenor	*Icalto	*Icant
!Bassus	!Tenor 2	!Tenor 1	!Altus	!Cantus
*clefF4	*clefGv2	*clefGv2	*clefG2	*clefG2
*k[]	*k[]	*k[]	*k[]	*k[]
*C:ion	*C:ion	*C:ion	*C:ion	*C:ion
*M4/2	*M4/2	*M4/2	*M4/2	*M4/2
=1	=1	=1	=1	=1
1r	1G	0r	0r	0r
1C	1G	.	.	.
=2	=2	=2	=2	=2
1C	1.c	0r	0r	0r
[1F	.	.	.	.
.	2B	.	.	.
=3	=3	=3	=3	=3
2F]	2A	0r	1c	0r
4E	4G	.	.	.
4D	4F	.	.	.
2E	2G	.	1c	.
[2F	[2A	.	.	.
=4	=4	=4	=4	=4
4F]	4A]	0r	1.f	0r
4E	4B	.	.	.
4D	1c	.	.	.
4C	.	.	.	.
1D	.	.	.	.
.	2B	.	4e	.
.	.	.	4d	.
=5	=5	=5	=5	=5
2C	0c	0r	2e	0r
4F	.	.	2.f	.
4G	.	.	.	.
4A	.	.	.	.
4B	.	.	4e	.
[2c	.	.	4d	.
.	.	.	4c	.
=6	=6	=6	=6	=6
2c]	1g	1G	0d	0r
4B	.	.	.	.
4A	.	.	.	.
1B	2.g	1G	.	.
.	4f	.	.	.
=7	=7	=7	=7	=7
2c	4e	1.c	1c	1r
.	4d	.	.	.
2C	1e	.	.	.
1G	.	.	2r	1g
.	4d	4B	2G	.
.	4c	4A	.	.
=8	=8	=8	=8	=8
0r	2d	2B	2G	1g
.	2e	2.c	4c	.
.	.	.	4d	.
.	[1c	.	4e	[1cc
.	.	4B	4f	.
.	.	4A	[2g	.
.	.	4G	.	.
=9	=9	=9	=9	=9
0r	1c]	1A	2g]	2cc]
.	.	.	2f#	4b
.	.	.	.	4a
.	2d	2G	2.g	2b
.	2e	4c	.	[2cc
.	.	4d	4f	.
=10	=10	=10	=10	=10
0r	1c	4e	1e	4cc]
.	.	4f	.	4b
.	.	1g	.	4a
.	.	.	.	4g
.	2r	.	1d	1a
.	[2d	2f#	.	.
=11	=11	=11	=11	=11
1G	2d]	2.g	0r	2b
.	2e	.	.	2b
.	.	4f	.	.
2A	2c	2e	.	2cc
2F	[2d	2f	.	2a
=12	=12	=12	=12	=12
1G	4d]	1d	2r	1b
.	4c	.	.	.
.	2B	.	2g	.
2F	2A	1r	2a	2cc
2F	[2d	.	2f	2dd
=13	=13	=13	=13	=13
2.E	4d]	1r	1g	4ee
.	4c	.	.	4ff
.	1c	.	.	4gg
8D	.	.	.	4ee
8C	.	.	.	.
1D	.	2r	2.f	1ff
.	2B	2d	.	.
.	.	.	8e	.
.	.	.	8d	.
=14	=14	=14	=14	=14
1C	1c	2e	2g	1ee
.	.	2c	1a	.
1r	1r	1d	.	2r
.	.	.	2f	2dd
=15	=15	=15	=15	=15
0r	1r	2c	2g	2ee
.	.	2c	2.a	2cc
.	2r	1B	.	1dd
.	.	.	4g	.
.	2d	.	[2g	.
=16	=16	=16	=16	=16
0r	2e	1A	2g]	2cc
.	2c	.	2f#	2cc
.	2d	2G	1g	2.b
.	2e	[2g	.	.
.	.	.	.	8a
.	.	.	.	8g
=17	=17	=17	=17	=17
2r	2.d	2g]	1r	1a
2D	.	2f	.	.
.	4c	.	.	.
1E	4B	1e	2r	1g
.	4A	.	.	.
.	2B	.	[2g	.
=18	=18	=18	=18	=18
1C	1c	1e	2g]	0r
.	.	.	1a	.
1D	2A	2d	.	.
.	2d	2A	2f	.
=19	=19	=19	=19	=19
2C	2e	4c	1g	0r
.	.	4B	.	.
2E	2c	4A	.	.
.	.	4G	.	.
4D	2d	[1A	2f	.
4E	.	.	.	.
4F	[2c	.	2f	.
4G	.	.	.	.
=20	=20	=20	=20	=20
4A	4c]	1A]	2.e	1r
4B	4d	.	.	.
1c	4e	.	.	.
.	4f	.	8d	.
.	.	.	8c	.
.	2.g	1G	1d	1dd
2B	.	.	.	.
.	4f	.	.	.
=21	=21	=21	=21	=21
1c	1e	1g	2c	1ee
.	.	.	1cc	.
1r	2A	2a	.	2cc
.	2d	2f	4b	[2dd
.	.	.	4a	.
=22	=22	=22	=22	=22
0r	2G	1g	1b	2dd]
.	2G	.	.	2b
.	2A	2f	2a	2cc
.	2B	2f	2d	[2dd
=23	=23	=23	=23	=23
0r	1c	2.e	1g	4dd]
.	.	.	.	4cc
.	.	.	.	1cc
.	.	8d	.	.
.	.	8c	.	.
.	1G	1d	2r	.
.	.	.	[2g	2b
=24	=24	=24	=24	=24
2r	1c	2e	2g]	0cc
1c	.	1g	2g	.
.	2r	.	1e	.
2c	[2c	2g	.	.
=25	=25	=25	=25	=25
1A	2c]	2a	2c	0r
.	2c	2e	1cc	.
1G	2d	1g	.	.
.	2e	.	2b	.
=26	=26	=26	=26	=26
1F	1f	1c	1a	0r
[1C	[1e	2r	2.g	.
.	.	[2g	.	.
.	.	.	4f	.
=27	=27	=27	=27	=27
1C]	1e]	2g]	4e	2r
.	.	.	4d	.
.	.	2g	2c	1g
1r	1r	2e	2c	.
.	.	2e	[2g	2g
=28	=28	=28	=28	=28
0r	1r	1d	4g]	2a
.	.	.	4f	.
.	.	.	2f	2b
.	2r	2c	2e	1cc
.	[2c	[2e	[2g	.
=29	=29	=29	=29	=29
0r	2c]	2e]	2g]	0cc
.	2c	2e	2g	.
.	1A	1f	1a	.
=30	=30	=30	=30	=30
2r	2G	4g	2b	0r
.	.	4f	.	.
1c	2.g	4e	2.cc	.
.	.	4d	.	.
.	.	1e	.	.
.	4f	.	8b	.
.	.	.	8a	.
2c	[2e	.	[2g	.
=31	=31	=31	=31	=31
1A	4e]	1c	2g]	1r
.	4d	.	.	.
.	1c	.	2f#	.
1G	.	1d	[1g	2r
.	2B	.	.	[2gg
=32	=32	=32	=32	=32
2r	2c	2.e	1g]	2gg]
1c	2g	.	.	2gg
.	.	4d	.	.
.	2g	4e	2r	1ee
.	.	4f	.	.
2c	[2e	2g	[2cc	.
=33	=33	=33	=33	=33
1A	2e]	1a	2cc]	2cc
.	2c	.	2cc	2ee
1F	1f	1r	1a	4dd
.	.	.	.	4cc
.	.	.	.	[2cc
=34	=34	=34	=34	=34
1G	2e	0r	2.g	2cc]
.	2.d	.	.	2b
.	.	.	4f	.
2A	.	.	2e	1a
.	4c	.	.	.
2F	[2c	.	2f	.
=35	=35	=35	=35	=35
1G	2c]	2r	1d	1g
.	2B	1g	.	.
[1C	1c	.	2e	2r
.	.	2g	[2c	[2gg
=36	=36	=36	=36	=36
1C]	2r	1e	2c]	2gg]
.	1g	.	2c	2gg
2r	.	4c	2e	1ee
.	.	4d	.	.
[2c	2g	4e	4c	.
.	.	4f	4d	.
=37	=37	=37	=37	=37
2c]	1e	1g	4e	2cc
.	.	.	4f	.
2c	.	.	2.g	2.ee
1A	1c	1r	.	.
.	.	.	8f#	4dd
.	.	.	8e	.
.	.	.	2f#	[2cc
=38	=38	=38	=38	=38
0G	0d	2r	1g	2cc]
.	.	1g	.	4b
.	.	.	.	4a
.	.	.	2d	1b
.	.	2g	[2g	.
=39	=39	=39	=39	=39
2.C	[0c	2e	2g]	[0cc
.	.	2e	2g	.
4D	.	.	.	.
1E	.	4g	2e	.
.	.	4f	.	.
.	.	4e	2g	.
.	.	4d	.	.
=40	=40	=40	=40	=40
1.F	1c_	4c	2a	1cc_
.	.	4B	.	.
.	.	4A	1a	.
.	.	4G	.	.
.	1c_	1F	.	1cc_
4E	.	.	4g	.
4D	.	.	4f	.
=41	=41	=41	=41	=41
0C	0c]	0G	0e	0cc]
==	==	==	==	==
*-	*-	*-	*-	*-
!!!CDT: 1525/^1526/-1594/2/2
!!!OCY: Italia
!!!AGN: Mass (Parody)
!!!AST: renaissance, vocal
!!!ASW: Motet (Maffoni)
!!!PWK: Masses, Book 6
!!!RNB: Cadence finals: G,A
!!!YOR: Le Opere Complete, v. 21, p. 105
!!!YOO: Rome, Italy: Fratelli Scalera
!!!END: 1992//
!!!EED: John Miller
!!!YEC: Copyright 2000, John Miller
!!!YEN: United States of America
!!!YEM: Rights to all derivative electronic formats reserved.
!!!YEM: Refer to licensing agreement for further details.
!!!YEM: This file must be accompanied by the licensing agreement.
!!!YEM: A copy of the licensing agreement may be found at http://www.music-cog.ohio-state.edu/HumdrumDatabases/Palestrina/license.txt
!!!EMD: converted to Humdrum by Bret Aarden
